icons/24x24_task_add_outline.svg

<svg xmlns="http://www.w3.org/2000/svg" width="24" height="24" viewBox="0 0 24 24">
  <path d="M20,14 L20,7 C20,6.44771525 19.5522847,6 19,6 C18.4477153,6 18,6.44771525 18,7 L18,14.3414114 C18.6255579,14.1203084 19.2987292,14 20,14 Z M14.3414114,22 L6,22 C4.8954305,22 4,21.1045695 4,20 L4,7 C4,6.44771525 4.44771525,6 5,6 C5.55228475,6 6,6.44771525 6,7 L6,20 L14,20 C14,20.7012708 14.1203084,21.3744421 14.3414114,22 Z M10,11 L14,11 C14.5522847,11 15,11.4477153 15,12 C15,12.5522847 14.5522847,13 14,13 L10,13 C9.44771525,13 9,12.5522847 9,12 C9,11.4477153 9.44771525,11 10,11 Z M10,15 L14,15 C14.5522847,15 15,15.4477153 15,16 C15,16.5522847 14.5522847,17 14,17 L10,17 C9.44771525,17 9,16.5522847 9,16 C9,15.4477153 9.44771525,15 10,15 Z M21,19 L23,19 C23.5522847,19 24,19.4477153 24,20 C24,20.5522847 23.5522847,21 23,21 L21,21 L21,23 C21,23.5522847 20.5522847,24 20,24 C19.4477153,24 19,23.5522847 19,23 L19,21 L17,21 C16.4477153,21 16,20.5522847 16,20 C16,19.4477153 16.4477153,19 17,19 L19,19 L19,17 C19,16.4477153 19.4477153,16 20,16 C20.5522847,16 21,16.4477153 21,17 L21,19 Z M10.2675644,3 C10.6133738,2.40219863 11.2597176,2 12,2 C12.7402824,2 13.3866262,2.40219863 13.7324356,3 L14,3 C15.1045695,3 16,3.8954305 16,5 L16,7 C16,7.55228475 15.5522847,8 15,8 L9,8 C8.44771525,8 8,7.55228475 8,7 L8,5 C8,3.8954305 8.8954305,3 10,3 L10.2675644,3 Z M10,5 L10,6 L14,6 L14,5 L10,5 Z M12,4 C11.4477153,4 11,4.44771525 11,5 L13,5 C13,4.44771525 12.5522847,4 12,4 Z"/>
</svg>

<svg width="24" height="24" fill="none" xmlns="http://www.w3.org/2000/svg"><path d="M20 14V7a1 1 0 1 0-2 0v7.341A5.99 5.99 0 0 1 20 14Zm-5.659 8H6a2 2 0 0 1-2-2V7a1 1 0 0 1 2 0v13h8c0 .701.12 1.374.341 2ZM10 11h4a1 1 0 1 1 0 2h-4a1 1 0 1 1 0-2Zm0 4h4a1 1 0 1 1 0 2h-4a1 1 0 1 1 0-2Zm11 4h2a1 1 0 1 1 0 2h-2v2a1 1 0 1 1-2 0v-2h-2a1 1 0 1 1 0-2h2v-2a1 1 0 1 1 2 0v2ZM10.268 3a2 2 0 0 1 3.464 0H14a2 2 0 0 1 2 2v2a1 1 0 0 1-1 1H9a1 1 0 0 1-1-1V5a2 2 0 0 1 2-2h.268ZM10 5v1h4V5h-4Zm2-1a1 1 0 0 0-1 1h2a1 1 0 0 0-1-1Z" fill="#000"/></svg>
